X:1
T:Title
%%score { ( 1 4 ) | ( 2 3 ) }
L:1/8
M:4/4
K:Db
V:1 treble nm="Grand Piano"
V:4 treble 
V:2 bass 
V:3 bass 
V:1
 z4 z2[Q:1/4=110] A2 | d2 B2 A2 FG | A2 F2 D2 [A,DF]2 | [A,CA]2 [A,DA]2 [A,EA]2 [A,CG]2 | %4
 [A,DF]6 [=A,EF]2 | [DB]3 [DB] [DF]2 [FB]2 | c3 c F2 c2 | [Fd]2 [B,FB]2 [CEA]2 [B,D=G]2 | %8
 [A,CA]6 A2 | d2 B2 A2 FG | A2 F2 D2 [A,DF]2 | [B,=DB]2 [B,EB]2 [B,FB]2 [B,DA]2 | [B,EG]6 [DGB]2 | %13
 e3 d c2 BA |[M:9/8] A2 d- d d2- d =G2 |[M:4/4] A3 A A2 e2 | [Fd]6 z2 | AAAA AAAA | %18
 AAAA AA[DFA][FA] | [CGA][GA][CGA][GA] [CGA][GA][CGA][GA] | [DFA]AAA AAAA | BBBB BBBB | AAAA AABB | %23
 cccc dddd |[M:3/4] cc cc c2 |[M:1/4] A2 |[M:4/4] e4 z4 | [Fd]6 z2 | c4 z4 |[M:3/4] [DB]6 | %30
[M:1/4] B2 |[M:4/4] d4 d4 | d3 A F2 B2 | A6 z2 |[M:3/4] [A,DF]6 |[M:1/4] [DFA]2 |[M:4/4] B4 d4 | %37
 [Ag]6 [Af]2 | [Gf]2 [Ge]2 d2 [Gc]2 | [Fd]6 [Fd]2 | %40
 d3 d d2 d2[Q:1/4=108][Q:1/4=107][Q:1/4=105][Q:1/4=104][Q:1/4=102][Q:1/4=100][Q:1/4=99][Q:1/4=97][Q:1/4=95][Q:1/4=94][Q:1/4=92][Q:1/4=91][Q:1/4=89][Q:1/4=87][Q:1/4=86][Q:1/4=84] | %41
[M:3/4] [Fd]6 |] %42
V:2
 z4 z2 A,2 | D2 B,2 A,2 F,G, | A,2 F,2 D,2 D,2 | A,,2 B,,2 C,2 A,,2 | D,6 C,2 | %5
 [B,,B,]3 [B,,B,] [B,,B,]2 [D,B,]2 | [F,=A,F]3 [F,A,F] [F,A,]2 [F,A,F]2 | [B,,B,]2 D,2 E,2 E,2 | %8
 A,,6 A,2 | D2 B,2 A,2 F,G, | A,2 F,2 D,2 D,2 | B,,2 C,2 =D,2 B,,2 | E,6 E,2 | %13
 [A,CG]3 [B,DG] [CEG]2 [A,CG]2 |[M:9/8] .[DF]6 z3 | %15
[M:4/4] [A,CF]3 [A,CF] [A,CG]2[K:bass] [A,,CG]2 | [D,D]6 z2 | .[DF]2 z2 .[DF]2 z2 | %18
 A,-[A,-DF][A,-DF][A,-DF] [A,-DF][A,DF][K:bass] z D | z C z C z C z C | %20
 z[K:treble] [DF][DF][DF] [DF][DF][DF][DF] | [DF][DF][DF][DF] [DF][DF][DF][DF] | %22
 [DF][DF][DF][DF] [DF][DF][DF][DF] | [EA][EA][EA][EA] [E=G][EG][EG][EG] | %24
[M:3/4] [EA][EA] [EA][EA] [EA]2 |[M:1/4] A,2 |[M:4/4] [A,DG]2 [A,C]2 [A,B,G]2 [A,CG]2 | %27
 z2 B,2 A,2 F,2 | [F,=A,E]2 [F,A,]2 [F,=G,E]2 [F,A,E]2 |[M:3/4] z2 F,2 B,2 |[M:1/4] B,2 | %31
[M:4/4] [G,B,G]2 [G,B,]2 [=G,B,_F]2 [G,B,]2 | [A,F]3 A,[K:bass] F,2 B,2 | A,6 z2 |[M:3/4] D,6 | %35
[M:1/4] D,2 |[M:4/4] G,2 G,2 F,2 F,2 | [E,C]6 [D,D]2 | [G,B,]2 [E,B,]2 [A,F]2 [A,,A,]2 | %39
 [D,A,]6 [D,_C]2 | [G,B,G]3 [G,B,G] [G,=A,G]2 [G,A,E]2 |[M:3/4] [D,A,]6 |] %42
V:3
 x8 | x8 | x8 | x8 | x8 | x8 | x8 | x8 | x8 | x8 | x8 | x8 | x8 | x8 | %14
[M:9/8] z2 B,- B, [B,DG]2- [B,DG] [=A,D_F]2 |[M:4/4] x6[K:bass] x2 | x8 | %17
 A,-[A,-DF][A,-DF][A,DF] B,-[B,DF][DF][DF] | .[DF]2 z2 z2[K:bass] F,2 | A,2 G,2 E,2 F,2 | %20
 D,6[K:treble] F,2 | B,4 F,4 | A,6 B,2 | C2 C2 D2 B,2 |[M:3/4] A,6 |[M:1/4] x2 |[M:4/4] x8 | %27
 D,6 z2 | x8 |[M:3/4] B,,6 |[M:1/4] x2 |[M:4/4] x8 | x4[K:bass] x4 | z2 A,,2 B,,2 C,2 |[M:3/4] x6 | %35
[M:1/4] x2 |[M:4/4] x8 | x8 | x8 | x8 | x8 |[M:3/4] x6 |] %42
V:4
 x8 | x8 | x8 | x8 | x8 | x8 | x8 | x8 | x8 | x8 | x8 | x8 | x8 | x8 |[M:9/8] x9 |[M:4/4] x8 | x8 | %17
 x8 | x8 | x8 | x8 | x8 | x8 | x8 |[M:3/4] x6 |[M:1/4] x2 |[M:4/4] z2 G2 f2 e2 | D2 z2 z2 F2 | %28
 z2 E2 d2 c2 |[M:3/4] B,2 z2 z2 |[M:1/4] x2 |[M:4/4] z2 G2 z2 _F2 | x8 | z2 C2 D2 [A,EG]2 | %34
[M:3/4] x6 |[M:1/4] x2 |[M:4/4] [DG]2 [DG]2 [DA]2 [DA]2 | x8 | x8 | x8 | x8 |[M:3/4] x6 |] %42

